X: 7307
T: Clementi's Andante
R: mazurka
M: 3/4
K: Gmajor
b gd|:B2 Bd cd|B2- Bg dB|Ae- ed BG|FA Db gd|
B2 Bd cd|B2- Bd gb|d'2- d'e' (3c'af|1 g2 b2 gd:|2 g6||
|:AB cB AB|G2 (3GGG G2|AB cB AB|Gg -ga f2|
^ce ge ce|d2 (3ddd d2|^ce ge ce|1 d2- d2 cB:|2 d2- db gd||

